icons/Yaru-remix-dark/scalable/categories/emoji-objects-symbolic.svg

<?xml version="1.0" encoding="UTF-8" standalone="no"?>
<svg
   xmlns:dc="http://purl.org/dc/elements/1.1/"
   xmlns:cc="http://creativecommons.org/ns#"
   xmlns:rdf="http://www.w3.org/1999/02/22-rdf-syntax-ns#"
   xmlns:svg="http://www.w3.org/2000/svg"
   xmlns="http://www.w3.org/2000/svg"
   xmlns:sodipodi="http://sodipodi.sourceforge.net/DTD/sodipodi-0.dtd"
   xmlns:inkscape="http://www.inkscape.org/namespaces/inkscape"
   height="16"
   width="16"
   version="1.1"
   id="svg10"
   sodipodi:docname="emoji-objects-symbolic.svg"
   inkscape:version="1.0.1 (3bc2e813f5, 2020-09-07)">
  <metadata
     id="metadata16">
    <rdf:RDF>
      <cc:Work
         rdf:about="">
        <dc:format>image/svg+xml</dc:format>
        <dc:type
           rdf:resource="http://purl.org/dc/dcmitype/StillImage" />
        <dc:title></dc:title>
      </cc:Work>
    </rdf:RDF>
  </metadata>
  <defs
     id="defs14" />
  <sodipodi:namedview
     pagecolor="#ffffff"
     bordercolor="#666666"
     borderopacity="1"
     objecttolerance="10"
     gridtolerance="10"
     guidetolerance="10"
     inkscape:pageopacity="0"
     inkscape:pageshadow="2"
     inkscape:window-width="1920"
     inkscape:window-height="1011"
     id="namedview12"
     showgrid="true"
     inkscape:zoom="18.937203"
     inkscape:cx="0.99391108"
     inkscape:cy="4.5916863"
     inkscape:window-x="0"
     inkscape:window-y="32"
     inkscape:window-maximized="1"
     inkscape:current-layer="svg10">
    <inkscape:grid
       type="xygrid"
       id="grid855" />
    <inkscape:grid
       type="xygrid"
       id="grid900"
       dotted="true"
       spacingx="0.5"
       spacingy="0.5"
       empspacing="10" />
  </sodipodi:namedview>
  <path
     id="path857"
     style="fill:#808080;fill-rule:evenodd;stroke-width:0.75;stroke-linecap:round;stroke-linejoin:round;fill-opacity:1"
     d="M 8 0 A 6 6 0 0 0 2 6 A 6 6 0 0 0 8 12 A 6 6 0 0 0 14 6 A 6 6 0 0 0 8 0 z M 8 1 A 5 5 0 0 1 13 6 A 5 5 0 0 1 8 11 A 5 5 0 0 1 3 6 A 5 5 0 0 1 8 1 z " />
  <path
     id="rect864"
     style="fill:#808080;fill-opacity:1;fill-rule:evenodd;stroke-width:0.75;stroke-linecap:round;stroke-linejoin:round"
     d="m 5,11 h 6 v 2 H 5 Z"
     sodipodi:nodetypes="ccccc" />
  <path
     id="rect866"
     style="fill:#808080;fill-opacity:1;fill-rule:evenodd;stroke-width:0.75;stroke-linecap:round;stroke-linejoin:round"
     d="M 9,16 H 7 C 5,16 5,15.5 5,14.5 V 14 h 6 v 0.5 c 0,1 0,1.5 -2,1.5 z"
     sodipodi:nodetypes="ccccccc" />
  <path
     style="fill:#808080;fill-rule:evenodd;stroke-width:0.75;stroke-linecap:round;stroke-linejoin:round;fill-opacity:1"
     id="path886"
     cx="7.5"
     cy="5.5"
     r="5.5" />
  <path
     style="fill:#808080;fill-rule:evenodd;stroke-width:0.75;stroke-linecap:round;stroke-linejoin:round;fill-opacity:1"
     id="path888"
     cx="7.5"
     cy="5.5"
     r="4.5" />
  <path
     style="color:#000000;font-style:normal;font-variant:normal;font-weight:normal;font-stretch:normal;font-size:medium;line-height:normal;font-family:sans-serif;font-variant-ligatures:normal;font-variant-position:normal;font-variant-caps:normal;font-variant-numeric:normal;font-variant-alternates:normal;font-variant-east-asian:normal;font-feature-settings:normal;font-variation-settings:normal;text-indent:0;text-align:start;text-decoration:none;text-decoration-line:none;text-decoration-style:solid;text-decoration-color:#000000;letter-spacing:normal;word-spacing:normal;text-transform:none;writing-mode:lr-tb;direction:ltr;text-orientation:mixed;dominant-baseline:auto;baseline-shift:baseline;text-anchor:start;white-space:normal;shape-padding:0;shape-margin:0;inline-size:0;clip-rule:nonzero;display:inline;overflow:visible;visibility:visible;isolation:auto;mix-blend-mode:normal;color-interpolation:sRGB;color-interpolation-filters:linearRGB;solid-color:#000000;solid-opacity:1;vector-effect:none;fill:#808080;fill-opacity:1;fill-rule:nonzero;stroke:none;stroke-width:1px;stroke-linecap:round;stroke-linejoin:round;stroke-miterlimit:4;stroke-dasharray:none;stroke-dashoffset:0;stroke-opacity:1;color-rendering:auto;image-rendering:auto;shape-rendering:auto;text-rendering:auto;enable-background:accumulate;stop-color:#000000;stop-opacity:1;opacity:0.6"
     d="M 6.5039062 6 A 0.5 0.5 0 0 0 6.1660156 6.1289062 A 0.5 0.5 0 0 0 6.1289062 6.8339844 C 6.1289062 6.8339844 6.3736514 7.1084702 6.7050781 7.3847656 C 7.0365049 7.6610611 7.4221873 8 8 8 C 8.5778127 8 8.9634951 7.6610611 9.2949219 7.3847656 C 9.6263486 7.1084702 9.8710938 6.8339844 9.8710938 6.8339844 A 0.5 0.5 0 0 0 9.8339844 6.1289062 A 0.5 0.5 0 0 0 9.1289062 6.1660156 C 9.1289062 6.1660156 8.9226388 6.3915298 8.6542969 6.6152344 C 8.3859549 6.8389389 8.0231125 7 8 7 C 7.9768875 7 7.6140451 6.8389389 7.3457031 6.6152344 C 7.0773612 6.3915298 6.8710938 6.1660156 6.8710938 6.1660156 A 0.5 0.5 0 0 0 6.5039062 6 z "
     id="path928" />
</svg>

<svg xmlns="http://www.w3.org/2000/svg" height="16" width="16">
    <path d="M8 0a6 6 0 00-6 6 6 6 0 006 6 6 6 0 006-6 6 6 0 00-6-6zm0 1a5 5 0 015 5 5 5 0 01-5 5 5 5 0 01-5-5 5 5 0 015-5z" fill="gray" fill-rule="evenodd"/>
    <path d="M5 11h6v2H5zM9 16H7c-2 0-2-.5-2-1.5V14h6v.5c0 1 0 1.5-2 1.5z" fill="gray" fill-rule="evenodd"/>
    <path style="line-height:normal;font-variant-ligatures:normal;font-variant-position:normal;font-variant-caps:normal;font-variant-numeric:normal;font-variant-alternates:normal;font-variant-east-asian:normal;font-feature-settings:normal;font-variation-settings:normal;text-indent:0;text-align:start;text-decoration-line:none;text-decoration-style:solid;text-decoration-color:#000;text-transform:none;text-orientation:mixed;white-space:normal;shape-padding:0;shape-margin:0;inline-size:0;isolation:auto;mix-blend-mode:normal;solid-color:#000;solid-opacity:1" d="M6.504 6a.5.5 0 00-.338.129.5.5 0 00-.037.705s.245.274.576.55C7.037 7.662 7.422 8 8 8s.963-.339 1.295-.615c.331-.277.576-.551.576-.551a.5.5 0 00-.037-.705.5.5 0 00-.705.037s-.206.226-.475.45A2.53 2.53 0 018 7a2.53 2.53 0 01-.654-.385c-.269-.223-.475-.449-.475-.449A.5.5 0 006.504 6z" color="#000" font-weight="400" font-family="sans-serif" overflow="visible" fill="gray" opacity=".6"/>
</svg>
